X:1
T:Title
%%score ( 1 2 3 ) { ( 4 6 ) | 5 }
L:1/8
Q:1/4=115
M:3/4
K:C
V:1 treble nm="Grand Piano, Staff"
V:2 treble 
V:3 treble 
V:4 bass nm="Choir Pad, Das Neugeborne Kindlein"
V:6 bass 
V:5 bass 
V:1
 D2 D2 D2 | A4 z2 | [DA]2 [^CG]2 [DF]2 | [^CE]6 | A2 z2 z2 | [Ec]4 [DB]2 | [CA]2 [B,^G]4 | [^CA]6 | %8
w: By~Melchior~Vulpius,~1609 * *||||||||
 [DA]2 [_B,G]2 [A,E]2 | F4 z2 | [DG]2 [CF]2 [CE]2 | [CF]6 | [Fc]2 [Fd]2 [Ec]2 | A3 G [DF]2 | %14
w: ||||||
 [_B,E]2 [A,D]2 [A,^C]2 | [A,D]6- | [A,D]2 z2 z2 |] %17
w: |||
V:2
 x6 | E3- [EG] [DF]2 | x6 | x6 | DE [FA]2 [FB]2 | x6 | x6 | x6 | x6 | A,2 z G [CA]2 | x6 | x6 | %12
 x6 | E4 z2 | x6 | x6 | x6 |] %17
V:3
 x6 | x6 | x6 | x6 | x6 | x6 | x6 | x6 | x6 | z2 D2 z2 | x6 | x6 | x6 | x6 | x6 | x6 | x6 |] %17
V:4
 F,G, A,2 G,F, | A,4 A,2 | F,2 G,2 A,2 | A,6 | A,2 D2 D2 | C2 ^F,2 F,2 | A,2 z2 z2 | E,6 | %8
 F,2 E,2 E,2 | z2 _B,2 z2 | _B,2 A,2 G,2 | A,6 | A,2 G,2 G,2 | E,2 A,2 A,2 | G,2 F,2 E,2 | F,6- | %16
 F,2 z2 z2 |] %17
V:5
 D,E, F,2 E,D, | ^C,4 D,2 | F,,2 E,,2 D,,2 | A,,6 | F,2 E,D, ^G,,2 | A,,4 B,,2 | C,D, E,2 E,,2 | %7
 A,,6 | D,,2 D,2 ^C,2 | z2 z2 F,2 | _B,,2 C,2 C,2 | F,,6 | F,2 _B,,2 C,2 | ^C,4 D,2 | %14
 G,,2 A,,2 A,,2 | D,,6- | D,,2 z2 z2 |] %17
V:6
 x6 | x6 | x6 | x6 | x6 | x6 | x6 | x6 | x6 | D,2 z E, A,2 | x6 | x6 | x6 | x6 | x6 | x6 | x6 |] %17

